X:0531
T:Cottilon.
N:the opening repeat is marked by a segno, probably because of lack of space
M:2/4
L:1/16
Q:1/4=112
Z:Jack Campin * www.campin.me.uk * 2009
K:C
G2|:c2ce d2df|e2g2 g4  |e2g2 (agf).e| dcde  d2G2|
    c2ce d2df|e2g2 g4  |e2g2 (agf).e|Te4    d4 ::
    e2eg d2df|e2eg d2df|e2g2  agfe  |(dcd)e d2d2|
    e2eg d2df|e2eg d2df|egec  dfdB  | c4    c4 :|

